tools/download-figma-icons/icons/outlined-medium/tools.svg

<svg width="25" height="25" viewBox="0 0 25 25" fill="none" xmlns="http://www.w3.org/2000/svg">
<path fill-rule="evenodd" clip-rule="evenodd" d="M22.2794 23.0018L19.4013 21.1288L18.9541 19.4654L14.2584 14.7697L14.7727 14.2555L19.4684 18.9512L21.131 19.3976L23.0047 22.2764L22.2794 23.0018ZM8.93865 18.479C9.36093 19.8269 9.00409 21.2823 8.00839 22.2788C7.36251 22.9246 6.52574 23.3025 5.65236 23.3742L7.58066 21.4459L6.77662 18.1736L3.50436 17.3696L1.5706 19.3026C1.64072 18.4229 2.01859 17.5823 2.66681 16.9341C3.6594 15.9415 5.11711 15.5846 6.46887 16.0046L6.91764 16.1433L16.1509 6.92639L16.0099 6.47607C15.586 5.12353 15.9413 3.66426 16.9362 2.66777C17.5821 2.02267 18.4181 1.64558 19.2922 1.57313L17.3639 3.5022L18.1672 6.77446L21.4395 7.57851L23.3732 5.64553C23.3031 6.52515 22.9252 7.36581 22.2778 8.01403C21.2813 9.00973 19.8228 9.36579 18.4742 8.94039L18.0231 8.79937L8.79763 18.0295L8.93865 18.479ZM7.20979 10.9614L2.33957 6.09117C1.83626 5.58787 1.55968 4.91861 1.55968 4.20728C1.55968 3.49596 1.83626 2.82592 2.33957 2.3234C3.3789 1.29887 5.05944 1.30198 6.0941 2.33664L10.9643 7.20686C11.0578 7.5746 11.3001 8.23295 11.8868 8.98167L8.98148 11.8815C8.23432 11.2972 7.57753 11.0549 7.20979 10.9614ZM22.1118 18.0482L20.2755 17.5542L15.8735 13.153L18.475 10.5516C20.242 10.9404 22.0854 10.409 23.3795 9.11568C24.7928 7.7016 25.2961 5.63852 24.6946 3.73126L24.3082 2.50649L20.9588 5.85589L19.4551 5.48737L19.0866 3.98291L22.4321 0.637409L21.2081 0.25175C19.3055 -0.350502 17.2471 0.154361 15.8346 1.56611C14.542 2.85943 14.013 4.70358 14.3986 6.47372L12.9986 7.87145C12.5342 7.22556 12.4571 6.75342 12.4548 6.73784L12.4252 6.4636L7.19578 1.23499C5.54952 -0.411273 2.87094 -0.412052 1.22468 1.23499C-0.409116 2.88203 -0.404442 5.55126 1.23792 7.19284L6.27331 12.2282L6.47043 12.4137L6.72831 12.4503C6.75324 12.4542 7.22538 12.5305 7.86893 12.9918L6.46497 14.3934C4.69795 14.0163 2.85458 14.543 1.56515 15.8324C0.151843 17.2449 -0.352241 19.3088 0.250011 21.2168L0.63567 22.4408L3.98506 19.0914L5.48875 19.4607L5.85805 20.9652L2.51255 24.3091L3.73575 24.6955C4.2671 24.8638 4.81014 24.9456 5.34773 24.9456C6.73688 24.9456 8.09175 24.3995 9.11005 23.3804C10.4034 22.0871 10.9339 20.2468 10.5491 18.4806L13.1575 15.8721L17.5572 20.2718L18.0511 22.1089L22.4882 24.9971L25 22.4852L22.1118 18.0482Z" fill="black"/>
</svg>

<svg xmlns="http://www.w3.org/2000/svg" width="25" height="25" fill="none" viewBox="0 0 25 25"><path fill="currentColor" fill-rule="evenodd" d="m22.28 23.002-2.88-1.873-.447-1.664-4.696-4.695.515-.514 4.695 4.695 1.663.447 1.874 2.878zM8.938 18.479a3.77 3.77 0 0 1-.93 3.8 3.77 3.77 0 0 1-2.357 1.095l1.929-1.928-.804-3.272-3.273-.804-1.933 1.933a3.777 3.777 0 0 1 4.898-3.298l.449.138 9.233-9.217-.141-.45a3.775 3.775 0 0 1 3.282-4.903l-1.928 1.93.803 3.271 3.272.805 1.934-1.933a3.77 3.77 0 0 1-4.899 3.294l-.45-.14-9.226 9.23zm-1.73-7.518-4.87-4.87a2.65 2.65 0 0 1-.78-1.884c0-.711.277-1.381.78-1.884a2.67 2.67 0 0 1 3.755.014l4.87 4.87c.094.368.336 1.026.923 1.775l-2.906 2.9c-.747-.585-1.403-.827-1.771-.92m14.903 7.087-1.836-.494-4.402-4.401 2.601-2.601a5.31 5.31 0 0 0 4.904-1.436 5.33 5.33 0 0 0 1.316-5.385l-.387-1.225-3.35 3.35-1.503-.369-.368-1.504L22.432.637 21.208.252a5.31 5.31 0 0 0-5.373 1.314 5.32 5.32 0 0 0-1.436 4.908l-1.4 1.397c-.465-.645-.542-1.118-.544-1.133l-.03-.274-5.23-5.229a4.226 4.226 0 0 0-5.97 0 4.226 4.226 0 0 0 .013 5.958l5.035 5.035.197.186.258.036c.025.004.497.08 1.14.542l-1.403 1.401a5.34 5.34 0 0 0-4.9 1.44A5.32 5.32 0 0 0 .25 21.216l.386 1.224 3.35-3.35 1.503.37.37 1.504-3.346 3.344 1.223.386A5.31 5.31 0 0 0 9.11 23.38a5.31 5.31 0 0 0 1.44-4.9l2.608-2.608 4.4 4.4.493 1.837 4.437 2.888L25 22.485z" clip-rule="evenodd"/></svg>
